gama.ui.shared/icons_svg/dark/branding/gama.ui.feature.diagram.svg

<svg height="48" viewBox="-232 -3168.709 48 48" width="48" xmlns="http://www.w3.org/2000/svg"><g fill="none"><path d="m-229.00004-3168.7094h42c1.65685 0 3 1.3431 3 3v42c0 1.6569-1.34315 3-3 3h-42c-1.65686 0-3-1.3431-3-3v-42c0-1.6569 1.34314-3 3-3z" fill="#fff"/><text fill="#ef9b00" transform="translate(-227.00004 -3146.2604)"><tspan fill="#ef9b00" font-family="DIN Pro" font-size="9" font-weight="bold" x="3.606" y="9">Graphical</tspan>  <tspan fill="#4288c4" font-family="DIN Pro" font-size="9" font-weight="bold" x="3.178" y="21.261">Modelling</tspan> </text><path d="m-230.60408-3146.258h3.029c.35174-4.5006 2.24884-8.9033 5.69132-12.3457 7.66846-7.6685 20.10146-7.6685 27.76992 0 3.44248 3.4424 5.33959 7.8451 5.69132 12.3457h3.02901c-.35701-5.2752-2.55174-10.4494-6.58419-14.482-8.8482-8.848-23.194-8.848-32.0422 0-4.03245 4.0326-6.22717 9.2068-6.58418 14.482z" fill="#efb54f" fill-opacity=".252"/><path d="m-230.60408-3146.258h3.029c.35174-4.5006 2.24884-8.9033 5.69132-12.3457 7.66846-7.6685 20.10146-7.6685 27.76992 0 3.44248 3.4424 5.33959 7.8451 5.69132 12.3457h3.02901c-.35701-5.2752-2.55174-10.4494-6.58419-14.482-8.8482-8.848-23.194-8.848-32.0422 0-4.03245 4.0326-6.22717 9.2068-6.58418 14.482z"/><path d="m-224.92567-3146.2208h3.03535c.32894-3.0599 1.66622-6.0322 4.01184-8.3777 5.4564-5.4565 14.30296-5.4565 19.75936 0 2.34562 2.3455 3.6829 5.3178 4.01184 8.3777h3.03535c-.33833-3.8355-1.97534-7.5782-4.91104-10.5138-6.63616-6.6362-17.3955-6.6362-24.03166 0-2.93569 2.9356-4.57271 6.6783-4.91104 10.5138z" fill="#d3673a" fill-opacity=".249"/><path d="m-224.92567-3146.2208h3.03535c.32894-3.0599 1.66622-6.0322 4.01184-8.3777 5.4564-5.4565 14.30296-5.4565 19.75936 0 2.34562 2.3455 3.6829 5.3178 4.01184 8.3777h3.03535c-.33833-3.8355-1.97534-7.5782-4.91104-10.5138-6.63616-6.6362-17.3955-6.6362-24.03166 0-2.93569 2.9356-4.57271 6.6783-4.91104 10.5138z"/><path d="m-219.22303-3146.258h3.05957c.29792-1.588 1.06134-3.1063 2.29026-4.335 3.24434-3.2445 8.50446-3.2445 11.7488 0 1.22892 1.2287 1.99234 2.747 2.29027 4.335h3.05956c-.3228-2.367-1.39403-4.6517-3.21368-6.4713-4.4241-4.4242-11.59699-4.4242-16.0211 0-1.81965 1.8196-2.89087 4.1043-3.21368 6.4713z" fill="#3570a0" fill-opacity=".25"/><path d="m-219.22303-3146.258h3.05957c.29792-1.588 1.06134-3.1063 2.29026-4.335 3.24434-3.2445 8.50446-3.2445 11.7488 0 1.22892 1.2287 1.99234 2.747 2.29027 4.335h3.05956c-.3228-2.367-1.39403-4.6517-3.21368-6.4713-4.4241-4.4242-11.59699-4.4242-16.0211 0-1.81965 1.8196-2.89087 4.1043-3.21368 6.4713z"/><path d="m-224.9456-3146.258h3.03587c.33386-3.0504 1.67017-6.012 4.00893-8.3508 2.74825-2.7482 6.35655-4.1122 9.95852-4.0922 1.88675.0107 3.77176.401 5.53053 1.1713l1.18076-2.7817c-2.13689-.9306-4.42605-1.4006-6.71681-1.4106-4.37328-.0186-8.75242 1.6404-12.08914 4.977-2.92886 2.929-4.56506 6.661-4.90866 10.487z" fill="#d3673a"/><path d="m-224.9456-3146.258h3.03587c.33386-3.0504 1.67017-6.012 4.00893-8.3508 2.74825-2.7482 6.35655-4.1122 9.95852-4.0922 1.88675.0107 3.77176.401 5.53053 1.1713l1.18076-2.7817c-2.13689-.9306-4.42605-1.4006-6.71681-1.4106-4.37328-.0186-8.75242 1.6404-12.08914 4.977-2.92886 2.929-4.56506 6.661-4.90866 10.487z"/><path d="m-219.17855-3146.2208h3.05565c.2872-1.6167 1.05542-3.1648 2.30463-4.414 1.50687-1.5069 3.44861-2.3139 5.42125-2.421v-3.0242c-2.7464.1092-5.46062 1.2123-7.5574 3.309-1.83982 1.84-2.91453 4.155-3.22413 6.5502z" fill="#3570a0"/><path d="m-219.17855-3146.2208h3.05565c.2872-1.6167 1.05542-3.1648 2.30463-4.414 1.50687-1.5069 3.44861-2.3139 5.42125-2.421v-3.0242c-2.7464.1092-5.46062 1.2123-7.5574 3.309-1.83982 1.84-2.91453 4.155-3.22413 6.5502z"/><path d="m-230.60656-3146.2208h3.02861c.34419-4.5136 2.24225-8.931 5.69419-12.3829 7.66846-7.6685 20.10146-7.6685 27.76992 0 .86397.8639 1.6306 1.7884 2.29989 2.7597l2.62395-1.515c-.80343-1.1927-1.73266-2.326-2.7877-3.381-8.8482-8.848-23.194-8.848-32.0422 0-4.0419 4.042-6.23746 9.231-6.58666 14.5192z" fill="#efb54f"/><path d="m-230.60656-3146.2208h3.02861c.34419-4.5136 2.24225-8.931 5.69419-12.3829 7.66846-7.6685 20.10146-7.6685 27.76992 0 .86397.8639 1.6306 1.7884 2.29989 2.7597l2.62395-1.515c-.80343-1.1927-1.73266-2.326-2.7877-3.381-8.8482-8.848-23.194-8.848-32.0422 0-4.0419 4.042-6.23746 9.231-6.58666 14.5192z"/></g></svg>

<?xml version="1.0" encoding="UTF-8" standalone="no"?>
<!DOCTYPE svg PUBLIC "-//W3C//DTD SVG 1.1//EN" "http://www.w3.org/Graphics/SVG/1.1/DTD/svg11.dtd">
<svg xmlns:xl="http://www.w3.org/1999/xlink" version="1.1" xmlns="http://www.w3.org/2000/svg" xmlns:dc="http://purl.org/dc/elements/1.1/" viewBox="-232.00004 -3168.7094 48 48" width="48" height="48">
  <defs/>
  <g id="SOURCES" fill="none" fill-opacity="1" stroke-dasharray="none" stroke="none" stroke-opacity="1">
    <title>SOURCES</title>
    <g id="SOURCES_Calque_1">
      <title>Calque 1</title>
      <g id="Group_6173">
        <g id="Graphic_6193">
          <path d="M -229.00004 -3168.7094 L -187.00004 -3168.7094 C -185.34319 -3168.7094 -184.00004 -3167.3663 -184.00004 -3165.7094 L -184.00004 -3123.7094 C -184.00004 -3122.0525 -185.34319 -3120.7094 -187.00004 -3120.7094 L -229.00004 -3120.7094 C -230.6569 -3120.7094 -232.00004 -3122.0525 -232.00004 -3123.7094 L -232.00004 -3165.7094 C -232.00004 -3167.3663 -230.6569 -3168.7094 -229.00004 -3168.7094 Z" fill="white"/>
          <text transform="translate(-227.00004 -3146.2604)" fill="#ef9b00">
            <tspan font-family="DIN Pro" font-weight="bold" font-size="9" fill="#ef9b00" x="3.6055" y="9">Graphical</tspan>
            <tspan font-family="DIN Pro" font-weight="bold" font-size="9" fill="#de1f00" y="9"> </tspan>
            <tspan font-family="DIN Pro" font-weight="bold" font-size="9" fill="#4288c4" x="3.178" y="21.261">Modelling</tspan>
            <tspan font-family="DIN Pro" font-weight="bold" font-size="10" fill="#de1f00" y="21.261"> </tspan>
          </text>
        </g>
        <g id="Group_6186">
          <g id="Graphic_6192">
            <path d="M -230.60408 -3146.258 L -227.57508 -3146.258 C -227.22334 -3150.7586 -225.32624 -3155.1613 -221.88376 -3158.6037 C -214.2153 -3166.2722 -201.7823 -3166.2722 -194.11384 -3158.6037 C -190.67136 -3155.1613 -188.77425 -3150.7586 -188.42252 -3146.258 L -185.39351 -3146.258 C -185.75052 -3151.5332 -187.94525 -3156.7074 -191.9777 -3160.74 C -200.8259 -3169.588 -215.1717 -3169.588 -224.0199 -3160.74 C -228.05235 -3156.7074 -230.24707 -3151.5332 -230.60408 -3146.258 Z" fill="#efb54f" fill-opacity=".25239327"/>
            <path d="M -230.60408 -3146.258 L -227.57508 -3146.258 C -227.22334 -3150.7586 -225.32624 -3155.1613 -221.88376 -3158.6037 C -214.2153 -3166.2722 -201.7823 -3166.2722 -194.11384 -3158.6037 C -190.67136 -3155.1613 -188.77425 -3150.7586 -188.42252 -3146.258 L -185.39351 -3146.258 C -185.75052 -3151.5332 -187.94525 -3156.7074 -191.9777 -3160.74 C -200.8259 -3169.588 -215.1717 -3169.588 -224.0199 -3160.74 C -228.05235 -3156.7074 -230.24707 -3151.5332 -230.60408 -3146.258 Z" stroke="#efb64f" stroke-linecap="round" stroke-linejoin="round" stroke-width="0"/>
          </g>
          <g id="Graphic_6191">
            <path d="M -224.92567 -3146.2208 L -221.89032 -3146.2208 C -221.56138 -3149.2807 -220.2241 -3152.253 -217.87848 -3154.5985 C -212.42208 -3160.055 -203.57552 -3160.055 -198.11912 -3154.5985 C -195.7735 -3152.253 -194.43622 -3149.2807 -194.10728 -3146.2208 L -191.07193 -3146.2208 C -191.41026 -3150.0563 -193.04727 -3153.799 -195.98297 -3156.7346 C -202.61913 -3163.3708 -213.37847 -3163.3708 -220.01463 -3156.7346 C -222.95032 -3153.799 -224.58734 -3150.0563 -224.92567 -3146.2208 Z" fill="#d3673a" fill-opacity=".24884463"/>
            <path d="M -224.92567 -3146.2208 L -221.89032 -3146.2208 C -221.56138 -3149.2807 -220.2241 -3152.253 -217.87848 -3154.5985 C -212.42208 -3160.055 -203.57552 -3160.055 -198.11912 -3154.5985 C -195.7735 -3152.253 -194.43622 -3149.2807 -194.10728 -3146.2208 L -191.07193 -3146.2208 C -191.41026 -3150.0563 -193.04727 -3153.799 -195.98297 -3156.7346 C -202.61913 -3163.3708 -213.37847 -3163.3708 -220.01463 -3156.7346 C -222.95032 -3153.799 -224.58734 -3150.0563 -224.92567 -3146.2208 Z" stroke="#d2673a" stroke-linecap="round" stroke-linejoin="round" stroke-width="0"/>
          </g>
          <g id="Graphic_6190">
            <path d="M -219.22303 -3146.258 L -216.16346 -3146.258 C -215.86554 -3147.846 -215.10212 -3149.3643 -213.8732 -3150.593 C -210.62886 -3153.8375 -205.36874 -3153.8375 -202.1244 -3150.593 C -200.89548 -3149.3643 -200.13206 -3147.846 -199.83413 -3146.258 L -196.77457 -3146.258 C -197.09737 -3148.625 -198.1686 -3150.9097 -199.98825 -3152.7293 C -204.41235 -3157.1535 -211.58524 -3157.1535 -216.00935 -3152.7293 C -217.829 -3150.9097 -218.90022 -3148.625 -219.22303 -3146.258 Z" fill="#3570a0" fill-opacity=".2496699"/>
            <path d="M -219.22303 -3146.258 L -216.16346 -3146.258 C -215.86554 -3147.846 -215.10212 -3149.3643 -213.8732 -3150.593 C -210.62886 -3153.8375 -205.36874 -3153.8375 -202.1244 -3150.593 C -200.89548 -3149.3643 -200.13206 -3147.846 -199.83413 -3146.258 L -196.77457 -3146.258 C -197.09737 -3148.625 -198.1686 -3150.9097 -199.98825 -3152.7293 C -204.41235 -3157.1535 -211.58524 -3157.1535 -216.00935 -3152.7293 C -217.829 -3150.9097 -218.90022 -3148.625 -219.22303 -3146.258 Z" stroke="#3770a0" stroke-linecap="round" stroke-linejoin="round" stroke-width="0"/>
          </g>
          <g id="Graphic_6189">
            <path d="M -224.9456 -3146.258 L -221.90973 -3146.258 C -221.57587 -3149.3084 -220.23956 -3152.27 -217.9008 -3154.6088 C -215.15255 -3157.357 -211.54425 -3158.721 -207.94228 -3158.701 C -206.05553 -3158.6903 -204.17052 -3158.3 -202.41175 -3157.5297 L -201.23099 -3160.3114 C -203.36788 -3161.242 -205.65704 -3161.712 -207.9478 -3161.722 C -212.32108 -3161.7406 -216.70022 -3160.0816 -220.03694 -3156.745 C -222.9658 -3153.816 -224.602 -3150.084 -224.9456 -3146.258 Z" fill="#d3673a"/>
            <path d="M -224.9456 -3146.258 L -221.90973 -3146.258 C -221.57587 -3149.3084 -220.23956 -3152.27 -217.9008 -3154.6088 C -215.15255 -3157.357 -211.54425 -3158.721 -207.94228 -3158.701 C -206.05553 -3158.6903 -204.17052 -3158.3 -202.41175 -3157.5297 L -201.23099 -3160.3114 C -203.36788 -3161.242 -205.65704 -3161.712 -207.9478 -3161.722 C -212.32108 -3161.7406 -216.70022 -3160.0816 -220.03694 -3156.745 C -222.9658 -3153.816 -224.602 -3150.084 -224.9456 -3146.258 Z" stroke="#d2673a" stroke-linecap="round" stroke-linejoin="round" stroke-width="0"/>
          </g>
          <g id="Graphic_6188">
            <path d="M -219.17855 -3146.2208 L -216.1229 -3146.2208 C -215.8357 -3147.8375 -215.06748 -3149.3856 -213.81827 -3150.6348 C -212.3114 -3152.1417 -210.36966 -3152.9487 -208.39702 -3153.0558 L -208.39702 -3156.08 C -211.14342 -3155.9708 -213.85764 -3154.8677 -215.95442 -3152.771 C -217.79424 -3150.931 -218.86895 -3148.616 -219.17855 -3146.2208 Z" fill="#3570a0"/>
            <path d="M -219.17855 -3146.2208 L -216.1229 -3146.2208 C -215.8357 -3147.8375 -215.06748 -3149.3856 -213.81827 -3150.6348 C -212.3114 -3152.1417 -210.36966 -3152.9487 -208.39702 -3153.0558 L -208.39702 -3156.08 C -211.14342 -3155.9708 -213.85764 -3154.8677 -215.95442 -3152.771 C -217.79424 -3150.931 -218.86895 -3148.616 -219.17855 -3146.2208 Z" stroke="#3770a0" stroke-linecap="round" stroke-linejoin="round" stroke-width="0"/>
          </g>
          <g id="Graphic_6187">
            <path d="M -230.60656 -3146.2208 L -227.57795 -3146.2208 C -227.23376 -3150.7344 -225.3357 -3155.1518 -221.88376 -3158.6037 C -214.2153 -3166.2722 -201.7823 -3166.2722 -194.11384 -3158.6037 C -193.24987 -3157.7398 -192.48324 -3156.8153 -191.81395 -3155.844 L -189.19 -3157.359 C -189.99343 -3158.5517 -190.92266 -3159.685 -191.9777 -3160.74 C -200.8259 -3169.588 -215.1717 -3169.588 -224.0199 -3160.74 C -228.0618 -3156.698 -230.25736 -3151.509 -230.60656 -3146.2208 Z" fill="#efb54f"/>
            <path d="M -230.60656 -3146.2208 L -227.57795 -3146.2208 C -227.23376 -3150.7344 -225.3357 -3155.1518 -221.88376 -3158.6037 C -214.2153 -3166.2722 -201.7823 -3166.2722 -194.11384 -3158.6037 C -193.24987 -3157.7398 -192.48324 -3156.8153 -191.81395 -3155.844 L -189.19 -3157.359 C -189.99343 -3158.5517 -190.92266 -3159.685 -191.9777 -3160.74 C -200.8259 -3169.588 -215.1717 -3169.588 -224.0199 -3160.74 C -228.0618 -3156.698 -230.25736 -3151.509 -230.60656 -3146.2208 Z" stroke="#efb64f" stroke-linecap="round" stroke-linejoin="round" stroke-width="0"/>
          </g>
        </g>
      </g>
    </g>
  </g>
</svg>
